rtdata/profiles/Skintones/Skintones - Pale TM Bright.pp3

[Version]
AppVersion=4.0.11.20
Version=312

[Exposure]
Auto=false
Clip=0.02
Compensation=0
Brightness=10
Contrast=10
Saturation=0
Black=0
HighlightCompr=40
HighlightComprThreshold=0
ShadowCompr=50
CurveMode=WeightedStd
CurveMode2=SatAndValueBlending
Curve=3;0;0;0.1013677790907735;0.011341564456759405;0.32302405498281778;0.2147079037800686;1;0.81422924901185889;
Curve2=3;0;0;0.16151202749140844;0.24319627128016638;0.59793814432989756;0.90034364261168354;1;1;

[Channel Mixer]
Red=100;0;0;
Green=0;100;0;
Blue=0;0;100;
CurveMode=Standardbw
CurveMode2=Standard
Curve=0;
Curve2=0;
bwred=43
bwgreen=33
bwblue=30
bwredgam=0
bwgreengam=0
bwbluegam=0
Filter=No
Set=Nc
bworan=33
bwyell=33
bwcyan=33
bwmag=33
bwpur=33
Enabledcc=true
Enabled=false
Met=No
VCurve=0;


[Luminance Curve]
Brightness=0
Contrast=0
Chromaticity=0
AvoidColorShift=true
RedAndSkinTonesProtection=0
BWtoning=false
LCredsk=true
LCurve=3;0;0;0.063241106719367585;6.9388939039072284e-018;0.49407114624505927;0.50197628458498023;0.92885375494071132;0.99604743083003922;1;1;
aCurve=0;
bCurve=0;
ccCurve=0;
chCurve=0;
LcCurve=0;

[Sharpening]
Enabled=false
Method=usm
Radius=0.5
Amount=200
Threshold=20;80;2000;1200;
OnlyEdges=false
EdgedetectionRadius=2.5
EdgeTolerance=1000
HalocontrolEnabled=false
HalocontrolAmount=85
DeconvRadius=0.75
DeconvAmount=75
DeconvDamping=20
DeconvIterations=30

[Vibrance]
Enabled=false
Pastels=0
Saturated=0
PSThreshold=0;75;
ProtectSkins=false
AvoidColorShift=true
PastSatTog=true
SkinTonesCurve=0;

[SharpenEdge]
Enabled=false
Passes=2
Strength=50
ThreeChannels=false

[SharpenMicro]
Enabled=false
Matrix=false
Strength=20
Uniformity=50

[White Balance]
Setting=Camera
Temperature=4500
Green=1.073
Equal=1.0

[Color appearance]
Enabled=true
Degree=100
AutoDegree=true
Surround=Average
AdaptLum=16
Model=RawT
Algorithm=QM
J-Light=0
Q-Bright=0
C-Chroma=0
S-Chroma=0
M-Chroma=0
J-Contrast=0
Q-Contrast=-5
H-Hue=0
RSTProtection=0
AdaptScene=2000
AutoAdapscen=true
SurrSource=false
Gamut=true
Datacie=false
Tonecie=true
CurveMode=Lightness
CurveMode2=Lightness
CurveMode3=Chroma
Curve=3;0;0;0.29629629629629628;0.19341563786008226;0.69547325102880675;0.80246913580246892;1;1;
Curve2=3;0;0;0.056806920298983779;0.020475350634080798;0.69802637104224341;0.88816662467456142;1;1;
Curve3=0;

[Impulse Denoising]
Enabled=false
Threshold=50

[Defringing]
Enabled=false
Radius=2
Threshold=13

[Directional Pyramid Denoising]
Enabled=true
Luma=0
Ldetail=50
Chroma=15
Method=RGB
Redchro=0
Bluechro=0
Gamma=1.7

[EPD]
Enabled=true
Strength=0.25
EdgeStopping=1.3999999999999999
Scale=0.25
ReweightingIterates=0

[Shadows & Highlights]
Enabled=false
HighQuality=false
Highlights=10
HighlightTonalWidth=80
Shadows=10
ShadowTonalWidth=80
LocalContrast=0
Radius=30

[Common Properties for Transformations]
AutoFill=false

[Rotation]
Degree=0

[Distortion]
Amount=0

[LensProfile]
LCPFile=
UseDistortion=true
UseVignette=true
UseCA=false

[Perspective]
Horizontal=0
Vertical=0

[CACorrection]
Red=0
Blue=0

[Vignetting Correction]
Amount=0
Radius=50
Strength=1
CenterX=0
CenterY=0

[HLRecovery]
Enabled=true
Method=Blend

[Resize]
Enabled=false
Scale=1
AppliesTo=Cropped area
Method=Bicubic
DataSpecified=0
Width=4276
Height=2836

[Color Management]
InputProfile=(cameraICC)
ToneCurve=false
BlendCMSMatrix=true
PreferredProfile=true
WorkingProfile=Adobe RGB
OutputProfile=RT_sRGB
Gammafree=default
Freegamma=false
GammaValue=2.2200000000000002
GammaSlope=4.5

[Directional Pyramid Equalizer]
Enabled=false
Mult0=1
Mult1=1
Mult2=1
Mult3=1
Mult4=0.2

[HSV Equalizer]
HCurve=0;
SCurve=0;
VCurve=0;

[RGB Curves]
LumaMode=false
rCurve=0;
gCurve=0;
bCurve=0;

[RAW]
DarkFrame=
DarkFrameAuto=false
FlatFieldFile=
FlatFieldAutoSelect=false
FlatFieldBlurRadius=32
FlatFieldBlurType=Area Flatfield
CA=false
CARed=0
CABlue=0
HotDeadPixels=false
HotDeadPixelThresh=40
LineDenoise=0
GreenEqThreshold=0
CcSteps=0
Method=amaze
DCBIterations=2
DCBEnhance=false
LMMSEIterations=2
PreExposure=1
PrePreserv=0
PreBlackzero=0
PreBlackone=0
PreBlacktwo=0
PreBlackthree=0
PreTwoGreen=true
