rtdata/profiles/Contrasty/Deep Shadows.pp3
[Version]
AppVersion=4.0.11.0
Version=312

[Exposure]
Auto=false
Clip=0.02
Compensation=0
Brightness=0
Contrast=0
Saturation=0
Black=0
HighlightCompr=70
HighlightComprThreshold=0
ShadowCompr=50
CurveMode=Standard
CurveMode2=Standard
Curve=3;0;0;0.10280701754385937;0;0.22561403508771805;0.081754385964912232;0.82456140350877249;0.82456140350877249;1;1;
Curve2=3;0;0;0.20585593677025255;0.44367403149511991;0.6315789473684208;0.89473684210526305;1;1;

[Channel Mixer]
Red=100;0;0;
Green=0;100;0;
Blue=0;0;100;
CurveMode=Standardbw
CurveMode2=Standard
Curve=0;
Curve2=0;
bwred=43
bwgreen=33
bwblue=30
bwredgam=0
bwgreengam=0
bwbluegam=0
Filter=No
Set=Nc
bworan=33
bwyell=33
bwcyan=33
bwmag=33
bwpur=33
Enabled=true
EnabledLm=false
Met=No
VCurve=0;

[Luminance Curve]
Brightness=0
Contrast=0
Chromaticity=0
AvoidColorShift=true
RedAndSkinTonesProtection=0
BWtoning=false
LCredsk=true
LCurve=0;
aCurve=0;
bCurve=0;
ccCurve=0;
chCurve=0;
LcCurve=0;

[Vibrance]
Enabled=true
Pastels=20
Saturated=20
PSThreshold=0;75;
ProtectSkins=false
AvoidColorShift=true
PastSatTog=true
SkinTonesCurve=0;

[Color appearance]
Enabled=false

[EPD]
Enabled=false

[Shadows & Highlights]
Enabled=false

[HSV Equalizer]
HCurve=0;
SCurve=0;
VCurve=0;

[RGB Curves]
LumaMode=false
rCurve=0;
gCurve=0;
bCurve=0;
