rtdata/profiles/Faded/Faded Chocolate 1 TM Bright.pp3
[Version]
AppVersion=4.0.12
Version=315

[Exposure]
Auto=false
Clip=0.02
Brightness=0
Contrast=0
Saturation=0
Black=0
HighlightCompr=70
HighlightComprThreshold=0
ShadowCompr=50
CurveMode=SatAndValueBlending
CurveMode2=FilmLike
Curve=3;0;0;0.23320158102766808;0.58893280632411094;0.69169960474308201;0.96047430830039549;1;1;
Curve2=3;0;0;0.12213438735177862;0.012648221343873525;0.46245059288537577;0.41250131169330889;1;1;

[Channel Mixer]
Red=80;0;20;
Green=0;60;40;
Blue=-20;20;80;

[Black & White]
Enabled=false

[Luminance Curve]
Brightness=0
Contrast=0
Chromaticity=-29
AvoidColorShift=true
RedAndSkinTonesProtection=0
LCredsk=true
LCurve=0;
aCurve=0;
bCurve=0;
ccCurve=0;
chCurve=0;
LcCurve=0;
ClCurve=0;
lhCurve=0;
hhCurve=0;

[Vibrance]
Enabled=false
Pastels=0
Saturated=0
PSThreshold=0;75;
ProtectSkins=false
AvoidColorShift=true
PastSatTog=true
SkinTonesCurve=0;

[Color appearance]
Enabled=false

[Directional Pyramid Denoising]
Enabled=true
Luma=0
Ldetail=50
Chroma=20
Method=RGB
Redchro=0
Bluechro=0
Gamma=1.7

[EPD]
Enabled=true
Strength=0.25
EdgeStopping=1.40
Scale=1
ReweightingIterates=0

[Shadows & Highlights]
Enabled=false

[HLRecovery]
Enabled=false
Method=Blend

[Color Management]
ToneCurve=false
BlendCMSMatrix=false
DCPIlluminant=0
WorkingProfile=ProPhoto
OutputProfile=RT_sRGB
Gammafree=default
Freegamma=false
GammaValue=2.2200000000000002
GammaSlope=4.5

[HSV Equalizer]
HCurve=0;
SCurve=0;
VCurve=0;

[RGB Curves]
LumaMode=false
rCurve=3;0;0;0.16206896551724165;0.079310344827586171;1;1;
gCurve=3;0;0;0.1655172413793104;0.034482758620689787;1;1;
bCurve=3;0;0;0.55827995093362426;0.31529235382308862;0.91699604743083007;0.76284584980237169;1;1;
