rtdata/profiles/Portrait Smooth.pp3
[Version]
AppVersion=4.0.11.0
Version=308

[Exposure]
Auto=false
Clip=0.02
Compensation=0
Brightness=0
Contrast=0
Saturation=0
Black=0
HighlightCompr=70
HighlightComprThreshold=0
ShadowCompr=50
CurveMode=FilmLike
CurveMode2=Standard
Curve=1;0;0;0.443;0.574;1;1;
Curve2=0;

[Channel Mixer]
Red=100;0;0;
Green=0;100;0;
Blue=0;0;100;

[Luminance Curve]
Brightness=-20
Contrast=-20
Chromaticity=0
AvoidColorShift=true
RedAndSkinTonesProtection=50
BWtoning=false
LCredsk=true
LCurve=3;0;0;0.0427;0.014;0.162;0.162;0.547;0.933;1;1;
aCurve=0;
bCurve=0;
ccCurve=1;0;0;0.254;0.300;1;1;
chCurve=0;
LcCurve=0;

[Sharpening]
Enabled=true
Method=usm
Radius=0.5
Amount=200
Threshold=20;80;2000;1200;
OnlyEdges=false
EdgedetectionRadius=1.9
EdgeTolerance=1800
HalocontrolEnabled=false
HalocontrolAmount=85
DeconvRadius=0.75
DeconvAmount=75
DeconvDamping=20
DeconvIterations=30

[Vibrance]
Enabled=false
Pastels=0
Saturated=0
PSThreshold=75;75;
ProtectSkins=false
AvoidColorShift=true
PastSatTog=true
SkinTonesCurve=0;

[SharpenEdge]
Enabled=false
Passes=2
Strength=50
ThreeChannels=false

[SharpenMicro]
Enabled=false
Matrix=false
Strength=20
Uniformity=50

[White Balance]
Setting=Camera
Temperature=7922
Green=1.159

[Color appearance]
Enabled=false
Degree=100
AutoDegree=true
Surround=Average
AdaptLum=16
Model=RawT
Algorithm=JC
J-Light=0
Q-Bright=0
C-Chroma=0
S-Chroma=0
M-Chroma=0
J-Contrast=0
Q-Contrast=0
H-Hue=0
RSTProtection=0
AdaptScene=2000
SurrSource=false
Gamut=true
Datacie=false
Tonecie=false
CurveMode=Lightness
CurveMode2=Lightness
CurveMode3=Chroma
Curve=0;
Curve2=0;
Curve3=0;

[Impulse Denoising]
Enabled=true
Threshold=50

[Defringing]
Enabled=true
Radius=2
Threshold=25

[Directional Pyramid Denoising]
Enabled=false
Luma=10
Ldetail=80
Chroma=10
Gamma=2

[EPD]
Enabled=false
Strength=0.3
EdgeStopping=1.4
Scale=1
ReweightingIterates=0

[Shadows & Highlights]
Enabled=false
HighQuality=false
Highlights=10
HighlightTonalWidth=80
Shadows=10
ShadowTonalWidth=80
LocalContrast=0
Radius=70

[Crop]
Enabled=false
X=0
Y=0
W=7360
H=4912
FixedRatio=false
Ratio=3:2
Orientation=Landscape
Guide=None

[Coarse Transformation]
Rotate=0
HorizontalFlip=false
VerticalFlip=false

[Common Properties for Transformations]
AutoFill=true

[Rotation]
Degree=0

[Distortion]
Amount=0

[LensProfile]
LCPFile=
UseDistortion=true
UseVignette=true
UseCA=true

[Perspective]
Horizontal=0
Vertical=0

[CACorrection]
Red=0
Blue=0

[Vignetting Correction]
Amount=0
Radius=50
Strength=1
CenterX=0
CenterY=0

[HLRecovery]
Enabled=true
Method=Luminance

[Resize]
Enabled=false
Scale=0.23
AppliesTo=Cropped area
Method=Lanczos
DataSpecified=3
Width=900
Height=900

[Color Management]
InputProfile=(cameraICC)
ToneCurve=false
BlendCMSMatrix=true
PreferredProfile=true
WorkingProfile=sRGB
OutputProfile=RT_sRGB
Gammafree=default
Freegamma=false
GammaValue=2.22
GammaSlope=4.5

[Directional Pyramid Equalizer]
Enabled=false
Mult0=1.0
Mult1=1.45
Mult2=1.3
Mult3=1.15
Mult4=0.2

[HSV Equalizer]
HCurve=1;0;0.5;0.35;0.35;0.164;0.49;0.35;0.35;0.333;0.5;0.35;0.35;0.5;0.5;0.35;0.35;0.666;0.5;0.35;0.35;0.833;0.5;0.35;0.35;
SCurve=0;
VCurve=1;0;0.5;0.35;0.35;0.166;0.5;0.35;0.35;0.333;0.5;0.35;0.35;0.5;0.5;0.35;0.35;0.666;0.5;0.35;0.35;0.833;0.5;0.35;0.35;

[RGB Curves]
LumaMode=false
rCurve=1;0;0;0.25;0.25;0.5;0.5;0.75;0.75;1;1;
gCurve=1;0;0;0.25;0.25;0.5;0.5;0.75;0.75;1;1;
bCurve=1;0;0;0.25;0.25;0.5;0.5;0.75;0.75;1;1;

[RAW]
DarkFrame=
DarkFrameAuto=false
FlatFieldFile=
FlatFieldAutoSelect=false
FlatFieldBlurRadius=32
FlatFieldBlurType=Area Flatfield
CA=true
CARed=0
CABlue=0
HotDeadPixels=true
HotDeadPixelThresh=40
LineDenoise=0
GreenEqThreshold=0
CcSteps=0
Method=amaze
DCBIterations=2
DCBEnhance=false
ALLEnhance=true
PreExposure=1
PrePreserv=0
PreBlackzero=0
PreBlackone=0
PreBlacktwo=0
PreBlackthree=0
PreTwoGreen=true
