rtdata/profiles/Standard Film Curve - ISO Low.pp3
[Exposure]
Auto=false
HistogramMatching=false
CurveMode=FilmLike
Curve=1;0;0;0.11;0.089999999999999997;0.32000000000000001;0.42999999999999999;0.66000000000000003;0.87;1;1;

[HLRecovery]
Enabled=true
Method=Blend

[LensProfile]
LcMode=lfauto
UseDistortion=true
UseVignette=true
UseCA=false

[Color Management]
ToneCurve=false
ApplyLookTable=true
ApplyBaselineExposureOffset=true
ApplyHueSatMap=true
DCPIlluminant=0

[RAW]
CA=true

[PostDemosaicSharpening]
Enabled=true